X:1
T:Étude Op. 25 No. 6 in G♯ minor
T:Étude Op. 25 No. 6 in G♯ minor
T:"Thirds"
T:Frédéric Chopin
C:Frédéric Chopin
%%score { ( 1 5 ) | ( 2 3 4 ) }
L:1/8
Q:1/2=69
M:2/2
K:B
V:1 treble nm="鋼琴" snm="Pno."
V:5 treble 
V:2 bass 
V:3 bass 
V:4 bass 
V:1
"^Allegro""_sotto voce" ([Bd]/[ce]/[Bd]/[ce]/ [Bd]/[ce]/[Bd]/[ce]/ [Bd]/[ce]/[Bd]/[ce]/ [Bd]/[ce]/[Bd]/[ce]/ | %1
 [Bd]/[ce]/[Bd]/[ce]/ [Bd]/[ce]/[Bd]/[ce]/ [Bd]/[ce]/[Bd]/[ce]/ [Bd]/[ce]/[Bd]/[ce]/) | %2
 ([Bd]/[ce]/[Bd]/[ce]/ [Bd]/[ce]/[Bd]/[ce]/ [Bd]/[ce]/[Bd]/[ce]/!mf!!<(! [Bd]/[ce]/[Bd]/[ce]/ | %3
 [Bd]/[ce]/[Bd]/[A^^c]/ [Bd]/[^ce]/[Bd]/[A^^c]/ [Bd]/[^ce]/[Bd]/[A^^c]/ [Bd]/[^ce]/[Bd]/[A^^c]/!<)! | %4
!f!!<(! [Bd]/[ce]/[^^c^e]/[df]/ [^^d^^f]/[eg]/[^f=a]/[^^f^a]/ [gb]/[^^g^b]/[ac']/[^^a^^c']/ [bd']/[^c'=e']/[^^c'^e']/[d'^f']/!<)! | %5
!ff!!8va(! [^^d'^^f']/[^e'g']/[^f'=a']/[^^f'^a']/ [g'b'])!8va)! z z4 | %6
!mf! ([eg]/[f=a]/[eg]/[fa]/!<(! [eg]/[fa]/[eg]/[fa]/ [eg]/[fa]/[eg]/[fa]/ [eg]/[fa]/[eg]/[fa]/ | %7
 [eg]/[f=a]/[eg]/[d^^f]/ [eg]/[^fa]/[eg]/[d^^f]/ [eg]/[^fa]/[eg]/[d^^f]/ [eg]/[^fa]/[eg]/[d^^f]/!<)! | %8
!f!!<(! [eg]/[f=a]/[^^f^a]/[gb]/ [^^g^b]/[ac']/[=b=d']/[^b^d']/!8va(! [c'e']/[=d'=f']/[^d'^f']/[e'=g']/ [^e'^g']/[f'=a']/[^^f'^a']/[g'b']/!<)! | %9
!ff! [^^g'^b']/[a'c'']/[=b'=d'']/[^b'^d'']/ [c''e''])!8va)! z z4 | %10
!8va(!!>(! ([c''e'']/[b'd'']/[a'c'']/[g'b']/ [^^f'a']/[e'g']/[d'f']/[c'e']/!8va)! [bd']/[ac']/[gb]/[^^fa]/ [eg]/[df]/[ce]/[Bd]/!>)! | %11
!mf! [A^^c]/[Bd]/[Ac]/[Bd]/ [^ce]/[Bd]/[ce]/[Bd]/ [Ac]/[Bd]/[Ac]/[Bd]/ [Ac]/[Bd]/[Ac]/[Bd]/) | %12
!ff!!>(! ([c'e']/[bd']/[ac']/[gb]/ [^^fa]/[eg]/[df]/[ce]/ [Bd]/[Ac]/[GB]/[^^FA]/ [EG]/[DF]/[CE]/[B,D]/)!>)! | %13
!mf! ([^A,^^C]/[B,D]/[^CE]/[^^C^E]/ [^DF]/[^^D^^F]/!<(![EG]/[^F=A]/ [^^F^A]/[GB]/[=A=c]/[^A^c]/ [B=d]/[^B^d]/[c=e]/[^^c^e]/!<)! | %14
 [df]) z!f!!8va(! ([b'd'']/[c''e'']/[b'd'']/[a'c'']/ [g'b']/[a'c'']/[g'b']/[f'a']/ [e'g']/[f'a']/[e'g']/[d'f']/!8va)! | %15
 [c'e']/[d'f']/[c'e']/[bd']/ [ac']/[bd']/[ac']/[gb]/ [fa]/[gb]/[fa]/[eg]/ [df]/[eg]/[df]/[ce]/) | %16
!<(! ([Bd]/[ce]/[^^c^e]/[df]/ [^^d^^f]/[eg]/[^f=a]/[^^f^a]/!<)!!ff!!>(! [gb]/[fa]/[^f=a]/[eg]/ [=e=g]/[^df]/[=d=f]/[^ce]/!>)! | %17
!f! [^B^d]/[=B=d]/[Ac]/[=A=c]/!<(! [GB]/[Ac]/[^A^c]/[B=d]/ [^B^d]/[ce]/[^^c^e]/!<)!"_dim."!ff!!>(![df]/ [=e=g]/[df]/[=d=f]/[^d^f]/)!>)! | %18
!f! ([=B^d]/[ce]/[Bd]/[ce]/ [Bd]/[ce]/[Bd]/[ce]/ [Bd]/[ce]/[Bd]/[ce]/!<(! [Bd]/[ce]/[Bd]/[ce]/ | %19
 [Bd]/[ce]/[Bd]/[A^^c]/ [Bd]/[^ce]/[Bd]/[A^^c]/ [Bd]/[^ce]/[Bd]/[A^^c]/ [Bd]/[^ce]/[Bd]/!ff![A^^c]/!<)! | %20
!f!!<(! [Bd]/[ce]/[^^c^e]/[df]/ [^^d^^f]/[eg]/[^f=a]/[^^f^a]/ [gb]/[^^g^b]/[ac']/[^^a^^c']/!<)!!ff! [bd']/[^c'=e']/[^^c'^e']/[d'^f']/ | %21
!8va(! [^^d'^^f']/[^e'g']/[^f'=a']/[^^f'^a']/ [g'b'])!8va)! z z4 | %22
!f! ([=d=f]/[=e=g]/[df]/[eg]/ [df]/[eg]/[df]/[eg]/ [df]/[eg]/[df]/[eg]/ [df]/[eg]/[df]/[eg]/ | %23
 [=d=f]/[e=g]/[df]/[ce]/ [df]/[eg]/[df]/[ce]/ [df]/[eg]/[df]/[ce]/ [df]/[eg]/[df]/[ce]/ | %24
!<(! [=d=f]/[^d^f]/[^^d^^f]/[^eg]/ [^f=a]/[=g_b]/[^g=b]/[a=c']/ [_b_d']/[=b=d']/[=c'_e']/[^c'=e']/!8va(! [^^d'=f']/[^d'^f']/[^e'=g']/[=f'_a']/ | %25
 [f'=a']/[=g'_b']/[^g'=b']/[=a'=c'']/ [^a'^c'']/[b'=d'']/[^b'^d'']/[^c''e'']/ [=d''=f''])!<)!!8va)!!ff! z z2 || %26
[K:C]"_leggieriss."!f!!8va(! ([d''f'']/[g'b']/[c''e'']/[f'a']/ [b'd'']/[e'g']/[a'c'']/[d'f']/ [g'b']/[c'e']/[f'a']/[bd']/ [e'g']/[ac']/[d'f']/[gb]/!8va)! | %27
 [c'e']/[fa]/[bd']/[eg]/ [ac']/[df]/[gb]/[ce]/ [fa]/[Bd]/[eg]/[Ac]/ [df]/[GB]/ [ce]/) z/ | %28
!8va(! ([c''_e'']/[f'a']/[_b'd'']/[_e'g']/ [a'c'']/[d'f']/[g'b']/[c'e']/ [f'a']/[_bd']/[e'g']/[ac']/ [d'f']/[gb]/[c'e']/[fa]/!8va)! | %29
[Q:1/4=132] [_bd']/[_eg]/[Q:1/4=129][ac']/[df]/[Q:1/4=126] [gb]/[ce]/[Q:1/4=123][fa]/[_Bd]/[Q:1/4=120] [eg]/[Ac]/[Q:1/4=117][df]/[GB]/[Q:1/4=114] [ce]/[FA]/[Q:1/4=111] B) | %30
!f![Q:1/4=98] .[_D_B_d][Q:1/4=138]!8va(! ([_b'_d'']/[e'g']/ [b'd'']/[e'g']/[a'c'']/[^d'^f']/ [^g'=b']/[=d'=f']/[=g'_b']/[^c'e']/ [^f'a']/[=c'_e']/[=f'_a']/[bd']/ | %31
 [=e'g']/[_b_d']/[_e'_g']/[ac']/ [=d'f']/[^g=b]/[^c'=e']/[=g_b]/!8va)! [=c'_e']/[^fa]/[=bd']/[=f_a]/ [_b_d']/[=e_g]/[=ac']/[^d^f]/ | %32
 [^gb]/[df]/[=g_b]/[^ce]/ [^fa]/[=c_e]/[=f_a]/[Bd]/ [=eg]/[_B_d]/[_e_g]/[Ac]/ [ef]/[Ac]/[ef]/[Ac]/) | %33
!>(! ([=df]/[A=B]/[de]/[^GB]/ [de]/[GB]/[de]/!>)!!f![GB]/)!ff![Q:1/4=132]!>(! ([^ce]/[Q:1/4=129][^^F^A]/[Q:1/4=126][c^d]/[Q:1/4=123][FA]/[Q:1/4=120] [cd]/[Q:1/4=117][FA]/[Q:1/4=114][cd]/[Q:1/4=111][FA]/)!>)! || %34
[K:B]!f![Q:1/4=138] ([Bd]/[ce]/[Bd]/[ce]/ [Bd]/[ce]/[Bd]/[ce]/ [Bd]/[ce]/[Bd]/[ce]/!<(! [Bd]/[ce]/[Bd]/[ce]/ | %35
 [Bd]/[ce]/[Bd]/[A^^c]/ [Bd]/[^ce]/[Bd]/[A^^c]/ [Bd]/[^ce]/[Bd]/[A^^c]/ [Bd]/[^ce]/[Bd]/!ff![A^^c]/!<)! | %36
!f!!<(! [Bd]/[ce]/[^^c^e]/[df]/ [^^d^^f]/[eg]/[^f=a]/[^^f^a]/ [gb]/[^^g^b]/[ac']/[^^a^^c']/!8va(! [bd']/[^c'e']/[^^c'^e']/[d'f']/!<)! | %37
!ff! [^^d'^^f']/[^e'g']/[^f'=a']/[^^f'^a']/ [g'b'])!8va)! z z4 | %38
!f! ([df]/[eg]/[df]/[eg]/ [df]/[eg]/[df]/[eg]/ [df]/[eg]/[df]/[eg]/ [df]/[eg]/[df]/[eg]/ | %39
 [df]/[eg]/[df]/[^^c^e]/ [df]/[=eg]/[df]/[c^e]/ [df]/[=eg]/[df]/[c^e]/ [df]/[=eg]/[df]/[c^e]/ | %40
 [df]/[^^d^^f]/[^eg]/[^f=a]/ [^^f^a]/[gb]/[^^g^b]/[ac']/!8va(! [^^a^^c']/[bd']/[^c'e']/[^^c'^e']/ [d'f']/[^^d'^^f']/[e'g']/[^f'=a']/ | %41
 .[f'^d''])!8va)! z z2 z4 | %42
!8va(! ([c''e'']/[b'd'']/[c''e'']/[b'd'']/ [a'c'']/[g'b']/[a'c'']/[g'b']/ [f'a']/[e'g']/[f'a']/[e'g']/ [d'f']/[c'e']/[d'f']/[c'e']/!8va)! | %43
 [bd']/[ac']/[bd']/[ac']/ [gb]/[fa]/[gb]/[fa]/ [eg]/[df]/[eg]/[df]/ [ce]/[Bd]/[ce]/[Bd]/) | %44
!8va(! ([g'b']/[f'a']/[g'b']/[f'a']/ [e'g']/[d'f']/[e'g']/[d'f']/ [c'e']/[bd']/[c'e']/[bd']/ [ac']/[gb]/[ac']/[gb]/!8va)! | %45
 [fa]/[eg]/[fa]/[eg]/ [df]/[ce]/[df]/[ce]/ [Bd]/[Ac]/[Bd]/[Ac]/ [GB]/[FA]/[EG]/[DF]/) | %46
 [CE] z!8va(! ([f'=a']/[e'g']/[=d'f']/[c'e']/ [bd']/[ac']/[gb]/[fa]/!8va)! [eg]/[=df]/[ce]/[Bd]/ | %47
 [=Ac]/[GB]/[FA]/[EG]/ [=DF]/[CE]/[B,D]/[=A,C]/[Q:1/4=124][I:staff +1] !>![G,B,]2[Q:1/4=116] !>![^^F,^A,]2 | %48
 G,)[Q:1/4=138][I:staff -1] z"_sotto voce" ([Bd]/[ce]/[Bd]/[ce]/ [Bd]/[ce]/[Bd]/[ce]/ [Bd]/[ce]/[Bd]/[ce]/ | %49
 [df]/[eg]/[df]/[eg]/ [df]/[eg]/[df]/[eg]/ [df]/[eg]/[df]/[eg]/ [df]/[eg]/[df]/[eg]/ | %50
 [f=a]/[^eg]/[=e=g]/[df]/ [=d=f]/[ce]/[^^c^e]/[^d^f]/ [=eg]/[df]/[=d=f]/[^ce]/ [^B^d]/[^^A^^c]/[Bd]/[^ce]/ | %51
 [=d=f]/[ce]/[^B^d]/[=B=d]/ [Ac]/[=A=c]/[=GB]/[A^c]/!>(! [GB]/[Ac]/[GB]/[Ac]/ [^^FB]/[Ac]/[FB]/[EA]/ | %52
 [^DG])!>)! z!pp!!8va(! ([^bd']/[c'e']/[bd']/[c'e']/ [bd']/[c'e']/[bd']/[c'e']/ [bd']/[c'e']/[bd']/[c'e']/ | %53
 [d'f']/[e'g']/[d'f']/[e'g']/ [d'f']/[e'g']/[d'f']/[e'g']/ [d'f']/[e'g']/[d'f']/[e'g']/ [d'f']/[e'g']/[d'f']/[e'g']/) | %54
 ([f'=a']/[^e'^g']/[=e'=g']/[d'f']/ [=d'=f']/[c'e']/[^^c'^e']/[^d'^f']/ [=e'g']/[d'f']/[=d'=f']/[^c'e']/ [^b^d']/[^^a^^c']/[bd']/[^c'e']/ | %55
 [=d'=f']/[c'e']/[^b^d']/[=b=d']/ [ac']/[=a=c']/[=gb]/[a^c']/!<(! [gb]/[ac']/[gb]/[ac']/ [^^fb]/[ac']/[fb]/[ea]/ | %56
 [^dg])!<)! z!f! ([^b'd'']/[b'=d'']/[^a'c'']/[=a'=c'']/ [g'b']/[^^f'^a']/[^f'=a']/[^e'g']/ [=e'=g']/[d'f']/[=d'=f']/[^c'e']/!8va)! | %57
 [^bd']/[b=d']/[^ac']/[=a=c']/ [gb]/[^^f^a]/[^f=a]/[^eg]/ [=e=g]/[df]/[=d=f]/[^ce]/ [^B^d]/[=B=d]/[^Ac]/[=A=c]/ | %58
 [GB]/"_dimin."[^^F^A]/[^F=A]/[^EG]/ [=E=G]/[DF]/[=D=F]/[CE]/ [^B,^D]/[=B,=D]/[I:staff +1][^A,C]/[=A,=C]/ [G,B,]/[^^F,^A,]/[^F,=A,]/[^E,G,]/ | %59
 [=E,=G,]/[D,F,]/[=D,=F,]/[C,E,]/ [^B,,^D,]/[C,E,]/[B,,D,]/[C,E,]/ [B,,D,]/[C,E,]/[B,,D,]/[C,E,]/ [B,,D,]/[C,E,]/[B,,D,]/[C,E,]/) | %60
 [^B,,D,]2!p![I:staff -1] z2"_sotto voce"[I:staff +1] (!>![E,G,A,]4 | %61
 [D,G,^B,]2)[I:staff -1] z2!f![Q:1/4=52]"^Lento" (!arpeggio![CDA]4 | !fermata![^B,D^B]8) |] %63
V:2
 z8 | z8 |!ped! (G,,D,B,)(^^F,,!ped-up!!ped! G,,D,B,)(D,,!ped-up! | %3
!ped! G,,D,B,)(^C,!ped-up!!ped! B,,D,B,)D,,!ped-up! | %4
!ped! .G,,[K:treble] ([B,DG][B,DG]!ped-up![B,DF] [B,DF][G,B,E] [G,B,E][G,B,D] | %5
[K:bass]!ped! [G,B,D][D,G,C] [D,G,C]!ped-up![D,G,B,]!ped!!>(! [D,G,B,][C,D,A,][C,D,A,]!ped-up![B,,D,G,])!>)! | %6
!ped! (G,,E,B,)(^^F,,!ped-up!!ped! G,,E,C)(G,,,!ped-up! | %7
!ped! G,,E,C)(D,!ped-up!!ped! C,E,C)G,,,!ped-up! | %8
!ped! .G,,[K:treble] ([EGc][EGc][CE=A]!ped-up! [CEA][CEG] [CEG][G,CF] | %9
[K:bass]!ped! !>![G,CF][G,CE] [G,CE]!ped-up![F,G,D]!ped! [F,G,D][E,G,C][F,G,D]!ped-up!{/F}[G,CE] | %10
!ped! .D,)[K:treble] [CDB] (BA!ped-up! G^^F) z2 | %11
[K:bass] G,,[D,B,](A,,G,,!ped! .^^F,,).[D,D]!ped-up!!ped! .G,,.[D,D]!ped-up! | %12
!ped! D,, ([C,D,B,]!ped-up! B,A, G,^^F,) z2 | G,,2 x2 x4 | %14
!ped! x x[K:treble] [df]2!ped-up!!ped! [ce]2!ped-up!!ped! B2!ped-up! | %15
!ped! x[K:bass] .F .F, .F,, .F,,, .F,, .F, .F!ped-up! | (B,,F,B,D) (C,E,A,C) | (D,G,B,D D,^^F,CD) | %18
!ped! (G,,D,B,)(^^F,,!ped-up!!ped! G,,D,B,)(D,,!ped-up! | %19
!ped! G,,D,B,)(^C,!ped-up!!ped! B,,D,B,)(D,,!ped-up! | %20
!ped! .G,,)[K:treble] ([B,DG][B,DG][B,DF]!ped-up! [B,DF][G,B,E] [G,B,E][G,B,D] | %21
[K:bass] [G,B,D][D,G,C] [D,G,C][D,G,B,]!>(! [D,G,B,][C,D,A,][C,D,A,][B,,D,G,])!>)! | %22
!ped! G,,2 x2!ped-up!!ped! G,,2 x2!ped-up! |!ped! G,,2 x2!ped-up!!ped! B,,2 x2!ped-up! | %24
!ped! x[K:treble] ([^^C^EB]!ped-up![=D=FB][DF_B] [=DFB][_CD_A] [CDA][_A,C_G] | %25
[K:bass] [_A,_C_G][A,C=F] [^G,=B,F][=F,G,=E] [F,_A,E]!>(![F,A,=D][F,A,=C][F,=G,B,])!>)! || %26
[K:C]!ped! .G,,[K:treble] ([B,FA] !>![B,FA]4 [CEG]!ped-up![G,A] | %27
 [B,FA]3 [G,G]) z2[K:bass] .G,.C, |!ped! .F,,[K:treble] ([A,_EG] [A,EG]4 [_B,DF]!ped-up![F,G] | %29
 [A,_EG]3 [F,F]) z2[K:bass] .F,._B,, | %30
!ped! .=E,,!ped-up![K:treble] [eg]/[_b_d']/ [eg]/[bd']/[^d^f]/[ac']/ [=d=f]/[^g=b]/[^ce]/[=g_b]/ [=c_e]/[^fa]/[=Bd]/[=f_a]/ | %31
 [_B_d]/[eg]/[Ac]/[_e_g]/ [^G=B]/[=df]/[=G_B]/[^c=e]/ [^FA]/[=c_e]/[=F_A]/[=Bd]/ [=EG]/[_B_d]/[^D^F]/[=Ac]/ | %32
 [DF]/[^GB]/[^CE]/[=G_B]/ [=C_E]/[^FA]/[B,D]/[=F_A]/ [_B,_D]/[=EG]/[A,C]/[_E_G]/ [A,C]/[EF]/[A,C]/[EF]/ | %33
 [A,=B,]/[DF]/[^G,B,]/[DE]/ [G,B,]/[DE]/[G,B,]/[DE]/[K:bass] [^^F,^A,]/[^CE]/[F,A,]/[C^D]/ [F,A,]/[CD]/[F,A,]/[CD]/ || %34
[K:B]!ped! (G,,D,B,)(^^F,,!ped-up!!ped! G,,D,B,)(D,,!ped-up! | %35
!ped! G,,D,B,)(^C,!ped-up!!ped! B,,D,B,)(D,,!ped-up! | %36
!ped! .G,,)[K:treble] ([B,DG][B,DG]!ped-up![B,DF] [B,DF][G,B,E] [G,B,E][G,B,D] | %37
[K:bass] [G,B,D][D,G,C] [D,G,C][D,G,B,]!>(! [D,G,B,][C,D,A,][C,D,A,][B,,D,G,])!>)! | %38
!ped! G,,2 x2!ped-up!!ped! G,,2 x2!ped-up! |!ped! G,,2 x2!ped-up!!ped! ^B,,2 x2!ped-up! | %40
!ped! x[K:treble] ([FGd][FGd]!ped-up![EGc] [EGc][DF^B] [DFB][CE=A] | %41
 [^B,^D=A][B,DG][B,DG][=A,CF][K:bass] [A,CF][G,CE][G,CE][F,G,D]) |!ped! C,,(C,G,D E!ped-up!CGA | %43
 !wedge!B)!ped! (G,,D,A,!ped-up! B,) z z2 |!ped! (E,,B,,E,F,!ped-up! G,E,B,C | %45
 D)!ped! (B,,,F,,C,!ped-up! D,) z z2 |!ped! !arpeggio![C,,E,] z !arpeggio![C,=A,E]2 z4!ped-up! | %47
 z4 ^D,2 C,2 |!ped! (G,,,D,B,)(^^F,,!ped-up!!ped! G,,D,B,)(D,,!ped-up! | %49
!ped! G,,D,^B,)(C,!ped-up!!ped! ^B,,D,B,)(D,,!ped-up! |!ped! G,,E,C)(D, C,E,C)!ped-up!!ped!(G,,, | %51
 G,,E,C)(^D,!ped-up!!ped! C,E,C)(G,,,!ped-up! | %52
!ped! G,,D,^B,)(C,!ped-up!!ped! ^B,,D,B,)(D,,!ped-up! | %53
!ped! G,,D,^B,)(C,!ped-up!!ped! ^B,,D,B,)(D,,!ped-up! | %54
!ped! G,,E,C)(D,!ped-up!!ped! C,E,C)!ped-up!!ped!(G,,, | %55
 (G,,)E,C)(^D,!ped-up!!ped! C,E,C)!ped-up!!ped!(G,,, | %56
 G,,D,^B,)(C,!ped-up!!ped! ^B,,D,B,)(D,,!ped-up! |!ped! G,,D,^B,)(C, ^B,,D,B,)(D,,!ped-up! | %58
 G,,) z z (D,,G,,) z z (D,, | G,,) z z2!<(! [G,,,G,,] z!<)! [G,,,G,,] z | %60
 [G,,,G,,]2 z2 ([C,,G,,]4 | [G,,,G,,]2) z2!ped! (!arpeggio![D,,^^F,]4!ped-up! | %62
!ped! !fermata![G,,D,G,]8)!ped-up! |] %63
V:3
 x8 | x8 | G,,2 x2 G,,2 x2 | G,,2 x2 B,,2 x2 | x[K:treble] x7 |[K:bass] x8 | G,,2 x2 G,,2 x2 | %7
 G,,2 x2 C,2 x2 | x[K:treble] x7 |[K:bass] x8 | x[K:treble] x [CD]4 z2 |[K:bass] G,,2 x6 | %12
 x2 [C,D,]4 z2 | (G,,[D,B,])(A,,G,, ^^F,,)[^E,B,]=A,,=G,, | .F,,.F,[K:treble] (bF aF dF- | %15
 [FAe])[K:bass] x7 | x8 | D,4 D,4 | G,,2 x2 G,,2 x2 | G,,2 x2 B,,2 x2 | x[K:treble] x7 | %21
[K:bass] x8 | (G,,=D,B,)(^^F,, G,,D,B,)(D,, | G,,=D,B,)(C, B,,D,B,)=D,, | .^G,,[K:treble] x7 | %25
[K:bass] x8 ||[K:C] x[K:treble] x7 | x6[K:bass] x2 | x[K:treble] x7 | x6[K:bass] x2 | %30
 x[K:treble] x7 | x8 | x8 | x4[K:bass] x4 ||[K:B] G,,2 x2 G,,2 x2 | G,,2 x2 B,,2 x2 | %36
 x[K:treble] x7 |[K:bass] x8 | (G,,D,^B,)(^^F,, G,,D,B,)(D,, | G,,D,^B,)(C, ^B,,D,B,)D,, | %40
 .G,,[K:treble] x7 | x4[K:bass] x4 | x8 | x8 | x8 | x8 | x8 | z4 ^D,,4 | x4 G,,2 x2 | %49
 G,,2 x2 ^B,,2 x2 | G,,2 x2 C,2 x2 | G,,2 x2 C,2 x2 | G,,2 x2 ^B,,2 x2 | G,,2 x2 ^B,,2 x2 | %54
 G,,2 x2 C,2 x2 | G,,2 x2 C,2 x2 | G,,2 x2 ^B,,2 x2 | G,,2 x2 ^B,,2 x2 | x8 | x8 | x8 | x8 | x8 |] %63
V:4
 x8 | x8 | x8 | x8 | x[K:treble] x7 |[K:bass] x8 | x8 | x8 | x[K:treble] x7 |[K:bass] x8 | %10
 x[K:treble] x7 |[K:bass] x8 | x8 | x8 | x2[K:treble] x4 g>f- | f[K:bass] x7 | x8 | x8 | x8 | x8 | %20
 x[K:treble] x7 |[K:bass] x8 | x8 | x8 | x[K:treble] x7 |[K:bass] x8 ||[K:C] x[K:treble] x7 | %27
 x6[K:bass] x2 | x[K:treble] x7 | x6[K:bass] x2 | x[K:treble] x7 | x8 | x8 | x4[K:bass] x4 || %34
[K:B] x8 | x8 | x[K:treble] x7 |[K:bass] x8 | x8 | x8 | x[K:treble] x7 | x4[K:bass] x4 | x8 | x8 | %44
 x8 | x8 | x8 | x8 | x8 | x8 | x8 | x8 | x8 | x8 | x8 | x8 | x8 | x8 | x8 | x8 | x8 | x8 | x8 |] %63
V:5
 x8 | x8 | x8 | x8 | x8 |!8va(! x3!8va)! x5 | x8 | x8 | x4!8va(! x4 | x3!8va)! x5 | %10
!8va(! x4!8va)! x4 | x8 | x8 | x8 | x2!8va(! x6!8va)! | x8 | x8 | x8 | x8 | x8 | x8 | %21
!8va(! x3!8va)! x5 | x8 | x8 | x6!8va(! x2 | x5!8va)! x3 ||[K:C]!8va(! x8!8va)! | x8 | %28
!8va(! x8!8va)! | x7 d | x!8va(! x7 | x4!8va)! x4 | x8 | x8 ||[K:B] x8 | x8 | x6!8va(! x2 | %37
 x3!8va)! x5 | x8 | x8 | x4!8va(! x4 | x!8va)! x7 |!8va(! x8!8va)! | x8 |!8va(! x8!8va)! | x8 | %46
 x2!8va(! x4!8va)! x2 | x8 | x8 | x8 | x8 | x8 | x2!8va(! x6 | x8 | x8 | x8 | x8!8va)! | x8 | x8 | %59
 x8 | x8 | x8 | x8 |] %63

